X:285
T:Reel 285
M:4/4
K:Bmin
L:1/8
FE|DB,A,B, F,E,E,2|F,A,B,^A, B,CDE||FAEC DB,CA,|F,B,B,^A, B,2DE:||2FDEC DB,CA,|F,B,B,^A, B,2B,2|FBB^A BFDB,|A,B,C^G AECA,|B,BB^A BFGE|FEDC B,2DC|B,BA^A BFDB,|A,2CE A2FE|DCB,A,  (3F,^G,^A, B,C|DFC^A, B,2B,2|
